X:47
T:Saint John Harbour
R:reel
C:Paul S. Cranford
O:Cape Breton Island
S:http://www.cranfordpub.com
D:currently unrecorded
B:currently unpublished in book form
Z:psc, (re-formatted,updated 9/17/04)
N:
H:                                                        copyrights Cranford Publications, SOCAN
Q:333
M:C|
K:D
ADFD ADFd|e2 ef dBBb|adfd adfd|e2 ef dBBd|
ADFD ADFd|e2 ef dBBb|abfd ecdB|1cbae fddB:|2cbae fdd||
|:c|Bbbf aB^gB|faaf eAcA|BFdB cAec|dffd eAcA|
Bbbf aB^gB|faaf eAcA|BFdB cAec|1dfec B2 B:|2dfec B2 Bd|]
